X: 20093
T: NANCY DAWSON
C:
%R: reel
B: Elias Howe "The Musician's Companion" 1843 p.9 #3
S: http://imslp.org/wiki/The_Musician's_Companion_(Howe,_Elias)
Z: 2015 John Chambers <jc:trillian.mit.edu>
M: C
L: 1/8
K: G
% - - - - - - - - - - - - - - - - - - - - - - - - -
|:\
GBGB dBG2 | ABAB AFD2 |\
GBGB dBG2 | AGFE D2D2 ::\
ABAB AGFD | dede dcBG |\
cBcd efge | dcBA G2G2 :|
% - - - - - - - - - - - - - - - - - - - - - - - - -

%%sep 1 1 500

